X: 18656
T: I'll Buy Boots For Maggie
R: polka
M: 2/4
K: Eminor
|:E>F GA|Bd de|Bc/B/ AF|EF D2|
E>F GA|Bd de|Bc/B/ AF|1 FE ED:|2 FE E2||
|:Be e>f|gf e2|ce e>f|gf e2|
^ce e>f|gf e2|Bc/B/ AF|1 FE E2:|2 FE ED||

